X:1
T:Ag ar blez-ma
C:An-dro, appris de G. Le Kere, rpertoire Dir Ha Tan, fichier abc : Bernard Loffet
L:1/8
Q:340
M:2/2
K:C
 z2[G2G,2] [B2G,,2][d2G,2] | [c2D,,2]D,A [B2D,,2][A2D,2] | [G2G,,2][G2G,2] [B2G,,2][d2G,2] | \
 [c2D,,2]D,A [B2D,,2][A2D,2] | [G2G,,2][G2G,2] [B2G,,2][d2G,2] | [c2D,,2]D,A [B2D,,2][A2D,2] | \
 [G2G,,2][G2G,2] [B2G,,2][d2G,2] | [c2D,,2]D,A [B2D,,2][A2D,2] | [G2G,,2][G2G,2] [d2G,,2][d2G,2] | \
 [d2G,,2]G,e [d2G,,2][G2G,2] | [c2C,,2]C,c [d2C,,2][c2C,2] | [B2D,,2]D,A [B2D,,2][A2D,2] | \
 [G2G,,2][G2G,2] [d2G,,2][d2G,2] | [d2G,,2]G,e [d2G,,2][G2G,2] | [c2C,,2]C,c [d2C,,2][c2C,2] | \
 [B2D,,2]D,A [B2D,,2][A2D,2] | [G8G,,8] | \
K:G
W:Created with TablEdit http://www.tabledit.com/ by Bernard Loffet
